!!!OTL: 300. Lied der Treue.
!!!COM: J. Gersbach
!!!ODT: 1828
!!!ARE: Europa, Mitteleuropa, Deutschland
!!!SCT: B0300
!!!TXL: @@DE
!!!YEM: Copyright 1995, estate of Helmut Schaffrath.
**kern	**text
*ICvox	*
*Ivox	*
*M4/4	*
*met(c)	*
*clefG2	*
*k[]	*
*C:	*
!LO:TX:a:t=Mäßig.	!
{4c	Ein
4e	ge-
=1	=1
4.g	-treu-
8e	-es
8dL	Herʒ
8eJ	.
8fL	ʒu
8gJ	.
=2	=2
8fL	wiſ-
8eJ	.
4e}	-ſen,
{4g	hat
4g	des
=3	=3
4.cc	höch-
8b	-ſtes
8aL	Scha-
8gJ	.
8fL	-tʒes
8eJ	.
=4	=4
2d}	Preis;
{4g	der
4b	iſt
=5	=5
4.dd	ſe-
8b	-lig
8aL	ʒu
8bJ	.
8ccL	be-
8ddJ	.
=6	=6
8ccL	-grü-
8bJ	.
4b}	-ßen,
{4d	der
4g	ein
=7	=7
4e	ſol-
4cc	-ches
4b	Klei-
4a	-nod
=8	=8
2g}	weiß.
{4g	Mir
4g	iſt
=9	=9
4cc	wohl
4g	beim
4a	höch-
4a	-ſten
=10	=10
2g}	Schmerʒ,
{4e	denn
4g	ich
=11	=11
4cc	weiß
4ee	ein
4.dd	treu-
8b	-es
=12	=12
2cc}	Herʒ.
==	==
!!!AGN: Stimmungs - Lied, Freude, Freundschaft, Treue
!!!GTL: Lieder der Freude und Geseligkeit
!!!ONB: ESAC (Essen Associative Code) Database: BOEHME
!!!AMT: simple quadruple
!!!AIN: vox
!!!EED: Helmut Schaffrath
!!!EEV: 1.0
!!@@COMMENT:"Gedicht von Paul Flemming (4 1640). Die urſprüngliche Ueberſchrift heißt Elsgens
!!getreues Herʒ". Die Anfangsbuchſtaben der 5 Strophen und einer ausgelaſſenen Schlußſtrophe
!!Nichts iſt ſüßer als ʒwei Treue rc. ) bilden den Namen "Elsgen". - Joſ. Gersbachs Sing-
!!weiſe ſteht ʒuerſt in deſſen "Singvöglein für die Jugend. " 1828."
!!@@END:
!!!Text: P. Flemming
!!!URL-scan: https://archive.org/details/BoehmeVtLieder1895/page/n251/mode/2up
!!!ENC: Anna Maria Matuszewska
!!!EEV: 2024/04/07
*-	*-
